X: 52
T: 40 Vloaz 'zo
R: barndance
M: 4/4
K: Aminor
|:"Am"A>B cd ed {d}e2|{B}"F"cA AB/c/ "G"dd ee|
"Fm7"A>B cd ed {d}e2|1 "Dm7"{B}cc AA "Em7"GG AA:|2 "F"{B}cA {AB}A2 "G"GG A2||
|:"C"e2 gg ed {cd}c2|"G"dd aa {ga}g2 e2|
"Am"{ed}e2 gg ed c2|"Em7"dd ed cB A2:|

